assets/images/whatsapp.svg

<svg width="202" height="202" viewBox="0 0 202 202" fill="none" xmlns="http://www.w3.org/2000/svg">
<rect x="0.5" y="0.5" width="201" height="201" rx="4.5" fill="#FAFAFA" stroke="#121212"/>
<path d="M141.03 60.9158C131.054 50.9736 117.751 45.4502 103.71 45.4502C74.5183 45.4502 50.8695 69.0169 50.8695 98.107C50.8695 107.313 53.4561 116.518 57.8902 124.251L50.5 151.5L78.5829 144.136C86.3427 148.186 94.8415 150.396 103.71 150.396C132.901 150.396 156.55 126.829 156.55 97.7387C156.18 84.1143 151.007 70.858 141.03 60.9158ZM129.206 116.887C128.098 119.832 122.924 122.778 120.338 123.147C118.121 123.515 115.165 123.515 112.209 122.778C110.361 122.042 107.774 121.305 104.818 119.832C91.5159 114.309 83.0171 101.053 82.2781 99.9481C81.539 99.2117 76.7354 92.9518 76.7354 86.3236C76.7354 79.6955 80.061 76.7497 81.1695 75.2768C82.278 73.8038 83.7561 73.8038 84.8646 73.8038C85.6037 73.8038 86.7122 73.8038 87.4512 73.8038C88.1902 73.8038 89.2988 73.4356 90.4073 76.0132C91.5159 78.5908 94.1024 85.2189 94.4719 85.5872C94.8415 86.3236 94.8415 87.0601 94.4719 87.7966C94.1024 88.533 93.7329 89.2695 92.9939 90.0059C92.2549 90.7424 91.5158 91.8471 91.1463 92.2153C90.4073 92.9518 89.6683 93.6882 90.4073 94.7929C91.1463 96.2658 93.7329 100.316 97.7976 103.999C102.971 108.417 107.035 109.89 108.513 110.627C109.991 111.363 110.73 110.995 111.469 110.259C112.209 109.522 114.795 106.576 115.534 105.103C116.273 103.63 117.382 103.999 118.49 104.367C119.599 104.735 126.25 108.049 127.359 108.786C128.837 109.522 129.576 109.89 129.945 110.259C130.315 111.363 130.315 113.941 129.206 116.887Z" fill="#121212"/>
</svg>

<svg width="202" height="202" fill="none" xmlns="http://www.w3.org/2000/svg"><rect x=".5" y=".5" width="201" height="201" rx="4.5" fill="#FAFAFA" stroke="#121212"/><path d="M141.03 60.916c-9.976-9.942-23.279-15.466-37.32-15.466-29.192 0-52.84 23.567-52.84 52.657 0 9.206 2.586 18.411 7.02 26.144L50.5 151.5l28.083-7.364c7.76 4.05 16.258 6.26 25.127 6.26 29.191 0 52.84-23.567 52.84-52.657-.37-13.625-5.543-26.881-15.52-36.823Zm-11.824 55.971c-1.108 2.945-6.282 5.891-8.868 6.26-2.217.368-5.173.368-8.129-.369-1.848-.736-4.435-1.473-7.391-2.946-13.302-5.523-21.8-18.779-22.54-19.884-.739-.736-5.543-6.996-5.543-13.624 0-6.629 3.326-9.574 4.434-11.047 1.109-1.473 2.587-1.473 3.696-1.473h2.586c.74 0 1.848-.368 2.956 2.21 1.109 2.577 3.695 9.205 4.065 9.573.37.737.37 1.473 0 2.21-.37.736-.74 1.472-1.478 2.209-.74.736-1.478 1.841-1.848 2.21-.739.736-1.478 1.472-.739 2.577.74 1.473 3.326 5.523 7.39 9.206 5.174 4.418 9.238 5.891 10.716 6.628 1.478.736 2.217.368 2.956-.368.74-.737 3.326-3.683 4.065-5.156.739-1.473 1.848-1.104 2.956-.736 1.109.368 7.76 3.682 8.869 4.419 1.478.736 2.217 1.104 2.586 1.473.37 1.104.37 3.682-.739 6.628Z" fill="#121212"/></svg>
